static/favicon.svg

<?xml version="1.0" encoding="utf-8"?>
<svg version="1.1" id="Layer_1" xmlns="http://www.w3.org/2000/svg" xmlns:xlink="http://www.w3.org/1999/xlink" x="0px" y="0px" viewBox="0 0 512 512" style="enable-background:new 0 0 512 512;" xml:space="preserve">
<style type="text/css">
.st0{fill:#FFFFFF;}
.st1{fill:#00C3FF;}
.st2{fill:#00BC5E;}
.st3{fill:#006F91;}
.st4{fill:none;stroke:#000000;stroke-width:24;stroke-linecap:round;stroke-linejoin:round;}
.st5{fill:none;stroke:#000000;stroke-width:24;stroke-linecap:round;}
.st6{fill:#FFE629;stroke:#000000;stroke-width:24;}
.st7{fill:none;stroke:#000000;stroke-width:24;stroke-linecap:round;stroke-linejoin:round;stroke-miterlimit:10;}
</style>
<path class="st0" d="M64,0h384c35.3,0,64,28.7,64,64v384c0,35.3-28.7,64-64,64H64c-35.3,0-64-28.7-64-64V64C0,28.7,28.7,0,64,0z"/>
<path class="st1" d="M77,327.6l125.4-64.7l80.7,52c0,0,6.8-77.4,6.9-76.7s31.5-7.7,31.5-7.7l15.2-16l30.1,2.4l-9.3-36.7L253,177.4 l-9.9-14.9l-0.5-97L223.7,56l-105.5,0.4L87.4,70L77,113.1L77,327.6z"/>
<path class="st2" d="M283.1,308.9v38.8l-11.7,7.6l-16.3-28.9l-24.6-7.4l-10.7,20.4l46.8,87.8H109.4l-22.6-13.3L77,334 c0,0,113-72,121.5-72S283.1,308.9,283.1,308.9z"/>
<polygon class="st3" points="244.7,164.9 264.1,180 342,180.2 352.7,166.2 253.7,67.2 244.7,75.4 "/>
<path class="st4" d="M242.6,56h-99.3c-23.2,0-34.8,0-43.6,4.5c-7.8,4-14.1,10.3-18.1,18.1C77,87.5,77,99,77,122.2v240.1 c0,23.2,0,34.8,4.5,43.6c4,7.8,10.3,14.1,18.1,18.1c8.9,4.5,20.4,4.5,43.6,4.5h78.6 M242.6,56l124.2,124.2 M242.6,56v91.1 c0,11.6,0,17.4,2.3,21.8c2,3.9,5.1,7.1,9,9c4.4,2.3,10.2,2.3,21.8,2.3h91.1 M366.8,180.2v41.4"/>
<path class="st5" d="M77,334c0,0,113-72,121.5-72s52.5,27.5,52.5,27.5"/>
<circle class="st6" cx="159.5" cy="169.5" r="35.5"/>
<path class="st7" d="M321.2,334v-81.4c0-10.2-8.9-19.1-19.1-19.1c-10.2,0-19.1,8.9-19.1,19.1v123.3l-28-49.6 c-5.1-8.9-17.8-11.4-26.7-6.4c-7.6,5.1-10.2,14-7.6,21.6c15.3,40.7,38.1,78.8,67.4,113.1"/>
<path class="st7" d="M321.2,334V233.5c0-10.2,8.9-19.1,19.1-19.1c10.2,0,19.1,8.9,19.1,19.1V334"/>
<path class="st7" d="M359.3,334v-81.4c0-10.2,8.9-19.1,19.1-19.1c10.2,0,19.1,8.9,19.1,19.1V334"/>
<path class="st7" d="M397.5,334v-63.6c0-10.2,8.9-19.1,19.1-19.1c10.2,0,19.1,8.9,19.1,19.1v76.3c0,36.9-7.6,75-22.9,109.3"/>
</svg>

<svg width="512" height="512" viewBox="0 0 512 512" fill="none" xmlns="http://www.w3.org/2000/svg">
<rect width="512" height="512" rx="64" fill="white"/>
<path d="M77 327.6L202.4 262.9L283.1 314.9C283.1 314.9 289.9 237.5 290 238.2C290.1 238.9 321.5 230.5 321.5 230.5L336.7 214.5L366.8 216.9L357.5 180.2L253 177.4L243.1 162.5L242.6 65.5L223.7 56L118.2 56.4L87.4 70L77 113.1V327.6Z" fill="#00C3FF"/>
<path d="M283.1 308.9V347.7L271.4 355.3L255.1 326.4L230.5 319L219.8 339.4L266.6 427.2H109.4L86.8 413.9L77 334C77 334 190 262 198.5 262C207 262 283.1 308.9 283.1 308.9Z" fill="#00BC5E"/>
<path d="M244.7 164.9L264.1 180L342 180.2L352.7 166.2L253.7 67.2L244.7 75.4V164.9Z" fill="#006F91"/>
<path d="M242.6 56H143.3C120.1 56 108.5 56 99.7 60.5C91.9 64.5 85.6 70.8 81.6 78.6C77 87.5 77 99 77 122.2V362.3C77 385.5 77 397.1 81.5 405.9C85.5 413.7 91.8 420 99.6 424C108.5 428.5 120 428.5 143.2 428.5H221.8M242.6 56L366.8 180.2M242.6 56V147.1C242.6 158.7 242.6 164.5 244.9 168.9C246.9 172.8 250 176 253.9 177.9C258.3 180.2 264.1 180.2 275.7 180.2H366.8M366.8 180.2V221.6" stroke="black" stroke-width="24" stroke-linecap="round" stroke-linejoin="round"/>
<path d="M77 334C77 334 190 262 198.5 262C207 262 251 289.5 251 289.5" stroke="black" stroke-width="24" stroke-linecap="round"/>
<path d="M159.5 205C179.106 205 195 189.106 195 169.5C195 149.894 179.106 134 159.5 134C139.894 134 124 149.894 124 169.5C124 189.106 139.894 205 159.5 205Z" fill="#FFE629" stroke="black" stroke-width="24"/>
<path d="M321.2 334V252.6C321.2 242.4 312.3 233.5 302.1 233.5C291.9 233.5 283 242.4 283 252.6V375.9L255 326.3C249.9 317.4 237.2 314.9 228.3 319.9C220.7 325 218.1 333.9 220.7 341.5C236 382.2 258.8 420.3 288.1 454.6" stroke="black" stroke-width="24" stroke-miterlimit="10" stroke-linecap="round" stroke-linejoin="round"/>
<path d="M321.2 334V233.5C321.2 223.3 330.1 214.4 340.3 214.4C350.5 214.4 359.4 223.3 359.4 233.5V334" stroke="black" stroke-width="24" stroke-miterlimit="10" stroke-linecap="round" stroke-linejoin="round"/>
<path d="M359.3 334V252.6C359.3 242.4 368.2 233.5 378.4 233.5C388.6 233.5 397.5 242.4 397.5 252.6V334" stroke="black" stroke-width="24" stroke-miterlimit="10" stroke-linecap="round" stroke-linejoin="round"/>
<path d="M397.5 334V270.4C397.5 260.2 406.4 251.3 416.6 251.3C426.8 251.3 435.7 260.2 435.7 270.4V346.7C435.7 383.6 428.1 421.7 412.8 456" stroke="black" stroke-width="24" stroke-miterlimit="10" stroke-linecap="round" stroke-linejoin="round"/>
</svg>
